X:4754
L:1/8
M:4/4
K:C
 g eg |: decd BcAB | GG G3 gec | decd cBAc | BB B3 fde | cdBd AcAc | BB B3 ggg | aggg agec | 
 GG G3 gec | decd BcAB | GG G3 gec | decc ccBB | A3 z A3 B | c2 Bc d2 cd | eceg a3 e | g2 f3 dAB |1 
 c4- cgec :|2 c3 B |: A2 AB c2 cd | eaae aa a2 | eaae a2 aA | eaae a2 eA | G3 A B2 Bd | gg g3 GBd | 
 gg g3 GBd | g3 f | A3 B c3 d | eaae a2 aA | eaae a2 Aa | eaae a2 z g | c'4- c'ef^f | g^fga gecd | 
 efec dedB |1 c3 B :|

